X: 38828
T: Summer Adventure, The
R: jig
M: 6/8
K: Dmajor
|:DFA ~f3|edc d2A|BAG FAF|E3 DFA|
BAG f3|edc d2A|BAG FAF|E3 D3:|
f3 afd|g3 faf|bag faf|e3 ede|
f3 afd|edc d2A|BAG FAF|E3 D3:|

